rospo-icon-theme-classic-common/22x22/places/folder-teal-torrent.svg

<svg height="22" width="22" xmlns="http://www.w3.org/2000/svg"><rect height="12" opacity=".2" rx="1" width="20" x="1" y="8.5"/><path d="m1 16c0 .554.446 1 1 1h18c .554 0 1-.446 1-1v-11c0-.554-.446-1-1-1h-10v-1c0-.554-.446-1-1-1h-7c-.554 0-1 .446-1 1" fill="#12806a"/><rect height="12" opacity=".2" rx="1" width="20" x="1" y="7.5"/><rect fill="#e4e4e4" height="8" rx="1" width="16" x="3" y="6"/><rect fill="#16a085" height="12" rx="1" width="20" x="1" y="8"/><path d="m2 2c-.554 0-1 .446-1 1v .5c0-.554.446-1 1-1h7c .554 0 1 .446 1 1v-.5c0-.554-.446-1-1-1zm8 2v .5h10c .554 0 1 .446 1 1v-.5c0-.554-.446-1-1-1z" fill="#fff" opacity=".1"/><path d="m11.5 10c-1.932997 0-3.5 1.567003-3.5 3.5s1.567003 3.5 3.5 3.5h9.5v-1h-9.5c-1.380712 0-2.5-1.119288-2.5-2.5s1.119288-2.5 2.5-2.5c.344234.000394.684677.07089 1 .208984v-1.060546c-.324344-.09794-.661192-.147297-1-.148438zm0 2c-.828427 0-1.5.671573-1.5 1.5s.671573 1.5 1.5 1.5h9.5v-1h-6.5-1.587891-1.412109c-.276142 0-.5-.223858-.5-.5s.223858-.5.5-.5h1.408203c-.206592-.581345-.755988-1-1.408203-1z" fill="#08382e"/></svg>

<svg xmlns="http://www.w3.org/2000/svg" width="22" height="22" version="1">
 <rect style="opacity:0.2" width="20" height="12" x="1" y="8.5" rx="1" ry="1"/>
 <path style="fill:#12806a" d="m 1,16 c 0,0.554 0.446,1 1,1 l 18,0 c 0.554,0 1,-0.446 1,-1 L 21,5 C 21,4.446 20.554,4 20,4 L 10,4 10,3 C 10,2.446 9.554,2 9,2 L 2,2 C 1.446,2 1,2.446 1,3"/>
 <rect style="opacity:0.2" width="20" height="12" x="1" y="7.5" rx="1" ry="1"/>
 <rect style="fill:#dcdcdc" width="16" height="8" x="3" y="6" rx="1" ry="1"/>
 <rect style="fill:#16a085" width="20" height="12" x="1" y="8" rx="1" ry="1"/>
 <path style="opacity:0.1;fill:#ffffff" d="M 2,2 C 1.446,2 1,2.446 1,3 l 0,0.5 c 0,-0.554 0.446,-1 1,-1 l 7,0 c 0.554,0 1,0.446 1,1 L 10,3 C 10,2.446 9.554,2 9,2 Z m 8,2 0,0.5 10,0 c 0.554,0 1,0.446 1,1 L 21,5 C 21,4.446 20.554,4 20,4 Z"/>
 <path style="fill:#08382e" d="M 11.5,10 C 9.567003,10 8,11.567003 8,13.5 8,15.432997 9.567003,17 11.5,17 l 9.5,0 0,-1 -9.5,0 C 10.119288,16 9,14.880712 9,13.5 9,12.119288 10.119288,11 11.5,11 c 0.344234,3.94e-4 0.684677,0.07089 1,0.208984 l 0,-1.060546 C 12.175656,10.050498 11.838808,10.001141 11.5,10 Z m 0,2 c -0.828427,0 -1.5,0.671573 -1.5,1.5 0,0.828427 0.671573,1.5 1.5,1.5 l 9.5,0 0,-1 -6.5,0 -1.587891,0 L 11.5,14 C 11.223858,14 11,13.776142 11,13.5 11,13.223858 11.223858,13 11.5,13 l 1.408203,0 C 12.701611,12.418655 12.152215,12 11.5,12 Z"/>
</svg>
